X: 7
T:Saturday Night, Badby
M:6/8
L:1/8
A:Badby
P:A.A2B6A2
K:G
P:A
BcB BAG|BcB A2G|Bcd dBG|DEF G3||
P:B
Bcd dBG|Bcd g3 |Bcd dBG|Bcd g3|
Bcd dcB|ABA ABc|
d2c B2A|G3  D3 |G2A BcB|A3  A3|
BcB BAG|BcB A2G|Bcd dBG|DEF G3||
